assets/images/Vector.svg

<svg width="130" height="130" viewBox="0 0 130 130" fill="none" xmlns="http://www.w3.org/2000/svg">
<path d="M129.498 84.0039L129.498 84.0004C129.498 82.811 128.824 81.4169 127.71 79.8663C126.607 78.3308 125.139 76.7294 123.669 75.1277L123.668 75.1273L123.65 75.1072C122.131 73.4493 120.559 71.7339 119.368 70.0562C118.18 68.3835 117.31 66.6655 117.31 65.0101C117.31 63.3548 118.179 61.637 119.365 59.964C120.561 58.2794 122.14 56.5571 123.668 54.8927C125.14 53.2872 126.609 51.6835 127.712 50.1466C128.826 48.5946 129.5 47.2 129.5 46.0105L129.5 46.0073C129.502 45.6911 129.451 45.3762 129.35 45.0743C128.905 43.7626 127.526 42.7821 125.468 41.9864C123.435 41.2003 120.897 40.652 118.348 40.1015L118.342 40.1003L118.313 40.0941C116.124 39.6213 113.861 39.1328 111.927 38.4746C110 37.8189 108.3 36.964 107.334 35.6989C106.349 34.4087 105.938 32.5198 105.938 29.8851C105.938 28.1899 106.113 26.3072 106.281 24.5036C106.29 24.4078 106.299 24.3122 106.308 24.2169C106.317 24.1229 106.325 24.0289 106.334 23.9348C106.503 22.1204 106.674 20.2886 106.674 18.6521C106.674 15.4269 106.005 13.6765 104.78 12.8267L104.78 12.8266C103.64 12.035 101.948 12.0222 99.8325 12.5226C97.739 13.0179 95.3816 13.9772 93.0157 14.9412L93.0155 14.9413L92.9956 14.9494C90.8936 15.8051 88.7228 16.689 86.7118 17.2443C84.7069 17.798 82.7723 18.0522 81.1789 17.5593L81.1786 17.5592C79.6592 17.0882 78.3301 15.8752 77.1067 14.3635C75.8775 12.8446 74.7001 10.9526 73.5112 9.03986C72.1624 6.87165 70.8195 4.71705 69.3891 3.1005C67.9497 1.47383 66.5145 0.499997 65.0019 0.499997C63.4895 0.499997 62.0538 1.47462 60.614 3.10185C59.1833 4.71888 57.8405 6.8735 56.4926 9.03988L56.4926 9.03996L56.4903 9.0436C55.3023 10.9522 54.1256 12.8428 52.8972 14.3614C51.674 15.8736 50.3448 17.0882 48.8252 17.5592L48.8247 17.5594C47.2287 18.0521 45.291 17.7981 43.2849 17.2444C41.2664 16.6872 39.0897 15.7995 36.9878 14.9411C34.622 13.9771 32.2647 13.0178 30.1713 12.5226C28.0562 12.0222 26.364 12.035 25.2237 12.8266C24.0021 13.6767 23.3302 15.4281 23.3302 18.6521C23.3302 20.2829 23.4992 22.1005 23.6675 23.9096C23.677 24.0121 23.6865 24.1146 23.696 24.217C23.7054 24.3177 23.7148 24.4187 23.7242 24.52C23.8918 26.3215 24.0662 28.1966 24.0662 29.8851C24.0662 32.5198 23.6549 34.4087 22.6698 35.6989C21.7041 36.964 20.0032 37.8189 18.0758 38.4747C16.1445 39.1317 13.8861 39.6197 11.7018 40.0916L11.6615 40.1003C9.11063 40.6512 6.56992 41.2006 4.53553 41.9877C2.47808 42.7838 1.09939 43.7641 0.653876 45.0738C0.553063 45.3732 0.502544 45.6855 0.503897 45.9992L0.503907 46.0014C0.503902 47.1909 1.17765 48.5854 2.29182 50.1375C3.39515 51.6744 4.86384 53.2781 6.33542 54.8836L6.33585 54.8841C7.86362 56.5481 9.4423 58.2676 10.6363 59.9492C11.8224 61.6196 12.6904 63.3347 12.6904 64.9899C12.6904 66.6451 11.8214 68.363 10.6345 70.036C9.43934 71.7207 7.85947 73.4431 6.3313 75.1076M129.498 84.0039L56.4888 120.96C55.2999 119.047 54.1225 117.155 52.8933 115.636C51.6699 114.125 50.3408 112.912 48.8214 112.441L48.8211 112.441C47.2277 111.948 45.2932 112.202 43.2882 112.756C41.2772 113.311 39.1065 114.195 37.0045 115.051L36.9845 115.059L36.9843 115.059C34.6184 116.023 32.261 116.982 30.1675 117.477C28.0524 117.978 26.3602 117.965 25.2199 117.173L25.2198 117.173C23.9949 116.323 23.3263 114.573 23.3263 111.348C23.3263 109.711 23.497 107.879 23.666 106.065C23.6747 105.971 23.6835 105.877 23.6922 105.783C23.7009 105.689 23.7097 105.595 23.7185 105.5C23.8867 103.696 24.0623 101.81 24.0623 100.115C24.0623 97.4803 23.6511 95.5913 22.666 94.301C21.7003 93.036 20.0004 92.1811 18.0731 91.5253C16.1378 90.8669 13.8733 90.3782 11.6817 89.9053L11.6558 89.8997L11.6557 89.8997L11.6479 89.898C9.10042 89.3476 6.56344 88.7995 4.53139 88.0136C2.47425 87.218 1.09557 86.2377 0.65005 84.9262C0.548564 84.6241 0.498034 84.3091 0.500067 83.9926L0.500067 83.9894C0.500066 82.7999 1.17381 81.4054 2.28798 79.8534C3.39124 78.3166 4.85981 76.713 6.3313 75.1076M129.498 84.0039C129.5 84.3203 129.45 84.6353 129.348 84.9373C128.902 86.2478 127.524 87.2281 125.467 88.0239C123.432 88.8108 120.892 89.3597 118.342 89.9107L118.299 89.92C116.116 90.3917 113.858 90.8796 111.927 91.5363C109.999 92.192 108.298 93.0469 107.332 94.312C106.347 95.6023 105.936 97.4912 105.936 100.126C105.936 101.818 106.111 103.695 106.278 105.497C106.287 105.596 106.297 105.695 106.306 105.794L106.331 106.061C106.5 107.88 106.67 109.707 106.67 111.348C106.67 114.572 105.998 116.323 104.776 117.173C103.636 117.965 101.944 117.978 99.8287 117.477C97.7352 116.982 95.3777 116.023 93.0118 115.059C90.9101 114.2 88.7335 113.313 86.7151 112.756C84.709 112.202 82.7713 111.948 81.1753 112.441L81.1748 112.441M129.498 84.0039L81.1748 112.441M6.3313 75.1076L5.96299 74.7694M6.3313 75.1076C6.3314 75.1075 6.33149 75.1074 6.33158 75.1073L5.96299 74.7694M5.96299 74.7694C3.0304 77.9689 6.64449e-05 81.2763 6.65635e-05 83.9894L5.96683 55.2214C9.03358 58.5617 12.1904 62.0043 12.1904 64.9899C12.1904 67.9755 9.02975 71.4292 5.96299 74.7694ZM81.1748 112.441C79.6552 112.912 78.326 114.126 77.1028 115.639C75.8744 117.157 74.6977 119.048 73.5097 120.956L73.5074 120.96L73.5074 120.96M81.1748 112.441L73.5074 120.96M73.5074 120.96C72.1595 123.126 70.8166 125.281 69.3859 126.898M73.5074 120.96L69.3859 126.898M69.3859 126.898C67.9462 128.525 66.5105 129.5 64.9981 129.5M69.3859 126.898L64.9981 129.5M64.9981 129.5C63.4855 129.5 62.0503 128.526 60.6109 126.899M64.9981 129.5L60.6109 126.899M60.6109 126.899C59.1805 125.283 57.8377 123.128 56.4889 120.96L60.6109 126.899Z" fill="#E9FFE8" stroke="#383838"/>
</svg>

<svg width="130" height="130" fill="none" xmlns="http://www.w3.org/2000/svg"><path d="M129.498 84.004V84c0-1.189-.674-2.583-1.788-4.134-1.103-1.535-2.571-3.137-4.041-4.738h-.001l-.018-.02c-1.519-1.659-3.091-3.374-4.282-5.052-1.188-1.672-2.058-3.39-2.058-5.046 0-1.655.869-3.373 2.055-5.046 1.196-1.685 2.775-3.407 4.303-5.071 1.472-1.606 2.941-3.21 4.044-4.746 1.114-1.552 1.788-2.947 1.788-4.136v-.004a2.883 2.883 0 0 0-.15-.933c-.445-1.311-1.824-2.292-3.882-3.088-2.033-.786-4.571-1.334-7.12-1.884l-.006-.002-.029-.006c-2.189-.473-4.452-.961-6.386-1.62-1.927-.655-3.627-1.51-4.593-2.775-.985-1.29-1.396-3.18-1.396-5.814 0-1.695.175-3.578.343-5.381l.027-.287.026-.282c.169-1.815.34-3.646.34-5.283 0-3.225-.669-4.976-1.894-5.825-1.14-.792-2.832-.805-4.948-.304-2.093.495-4.45 1.454-6.816 2.418l-.02.008c-2.102.856-4.273 1.74-6.284 2.295-2.005.554-3.94.808-5.533.315-1.52-.47-2.849-1.684-4.072-3.196-1.23-1.518-2.407-3.41-3.596-5.323-1.349-2.168-2.691-4.323-4.122-5.94C67.95 1.475 66.515.5 65.002.5c-1.512 0-2.948.975-4.388 2.602-1.43 1.617-2.773 3.772-4.121 5.938l-.003.004c-1.188 1.908-2.364 3.799-3.593 5.317-1.223 1.513-2.552 2.727-4.072 3.198-1.596.493-3.534.24-5.54-.315-2.019-.557-4.195-1.444-6.297-2.303-2.366-.964-4.723-1.923-6.817-2.418-2.115-.5-3.807-.488-4.947.304-1.222.85-1.894 2.601-1.894 5.825 0 1.63.17 3.448.338 5.258a3441.289 3441.289 0 0 0 .056.61c.168 1.802.342 3.677.342 5.365 0 2.635-.411 4.524-1.396 5.814-.966 1.265-2.667 2.12-4.594 2.776-1.931.657-4.19 1.145-6.374 1.617l-.04.008c-2.551.551-5.092 1.1-7.126 1.888-2.058.796-3.437 1.776-3.882 3.086-.1.3-.151.611-.15.925v.002c0 1.19.674 2.584 1.788 4.137 1.103 1.536 2.572 3.14 4.043 4.746 1.529 1.664 3.107 3.384 4.301 5.065 1.186 1.67 2.054 3.386 2.054 5.04 0 1.656-.869 3.374-2.056 5.047-1.195 1.685-2.775 3.407-4.303 5.072m123.167 8.896-73.01 36.956c-1.188-1.913-2.365-3.805-3.595-5.324-1.223-1.511-2.552-2.724-4.072-3.195-1.593-.493-3.528-.239-5.533.315-2.01.555-4.181 1.439-6.283 2.295l-.02.008c-2.367.964-4.724 1.923-6.817 2.418-2.116.501-3.808.488-4.948-.304-1.225-.85-1.894-2.6-1.894-5.825 0-1.637.171-3.469.34-5.283l.026-.282.026-.283c.169-1.804.344-3.69.344-5.385 0-2.635-.41-4.524-1.396-5.814-.966-1.265-2.666-2.12-4.593-2.776-1.935-.658-4.2-1.147-6.391-1.62l-.026-.005-.008-.002c-2.548-.55-5.085-1.099-7.117-1.884-2.057-.796-3.435-1.776-3.88-3.088a2.872 2.872 0 0 1-.15-.933v-.004c0-1.19.673-2.584 1.787-4.136 1.103-1.536 2.572-3.14 4.043-4.745m123.167 8.896c.002.316-.048.631-.15.933-.446 1.31-1.824 2.291-3.881 3.087-2.035.787-4.575 1.336-7.125 1.887l-.043.009c-2.183.472-4.441.96-6.372 1.616-1.928.656-3.629 1.51-4.595 2.776-.985 1.29-1.396 3.18-1.396 5.814 0 1.692.175 3.569.342 5.371l.028.297.025.267c.169 1.819.339 3.646.339 5.287 0 3.224-.672 4.975-1.894 5.825-1.14.792-2.832.805-4.947.304-2.094-.495-4.451-1.454-6.817-2.418-2.102-.859-4.278-1.746-6.297-2.303-2.006-.554-3.944-.808-5.54-.315m48.323-28.437L81.175 112.44M6.33 75.108l-.368-.339m.368.339-.368-.339m0 0C3.03 77.97 0 81.276 0 83.99l5.967-28.768c3.067 3.34 6.223 6.783 6.223 9.769 0 2.986-3.16 6.44-6.227 9.78Zm75.212 37.672c-1.52.471-2.849 1.685-4.072 3.198-1.229 1.518-2.405 3.409-3.593 5.317l-.003.004m7.668-8.519-7.668 8.519m0 0c-1.348 2.166-2.69 4.321-4.121 5.938m4.121-5.938-4.121 5.938m0 0c-1.44 1.627-2.876 2.602-4.388 2.602m4.388-2.602-4.388 2.602m0 0c-1.513 0-2.948-.974-4.387-2.601m4.387 2.601-4.387-2.601m0 0c-1.43-1.616-2.773-3.771-4.122-5.939l4.122 5.939Z" fill="#E9FFE8" stroke="#383838"/></svg>
